images/juicy-garden.svg

<svg width="200" height="34" viewBox="0 0 200 34" fill="none" xmlns="http://www.w3.org/2000/svg">
<path fill-rule="evenodd" clip-rule="evenodd" d="M191.086 33.5H8.91357C3.99102 33.5 0 29.5591 0 24.6983V9.30194C0 4.44095 3.99102 0.5 8.91357 0.5H191.086C196.009 0.5 200 4.44095 200 9.30194V24.6983C200 29.5591 196.009 33.5 191.086 33.5Z" fill="#1DABDD"/>
<path fill-rule="evenodd" clip-rule="evenodd" d="M22.3592 10.8194C22.3592 10.2955 22.8029 9.85444 23.3356 9.85444H24.7797C25.3103 9.85444 25.7561 10.2955 25.7561 10.8194V20.9427C25.7561 23.437 24.3547 24.7765 21.8286 24.7765C20.9998 24.7765 20.2156 24.6097 19.5138 24.2526C19.1545 24.065 18.9623 23.8124 18.9623 23.4576L19.0888 22.9523L19.4718 22.0945C19.6642 21.6957 19.9387 21.508 20.3001 21.508L20.7887 21.5709L21.2556 21.6329H21.362C21.9762 21.6329 22.3592 21.1718 22.3592 20.3325V10.8194Z" fill="white"/>
<path fill-rule="evenodd" clip-rule="evenodd" d="M39.5812 10.8194C39.5812 10.2955 40.0272 9.85444 40.5575 9.85444H41.9988C42.5293 9.85444 42.9751 10.2955 42.9751 10.8194V18.4692C42.9751 20.5851 42.4029 22.1597 41.2573 23.2051C40.0877 24.2526 38.6467 24.7765 36.9041 24.7765C34.9302 24.7765 33.362 24.232 32.1924 23.1217C31.026 22.0111 30.4318 20.4188 30.4318 18.323V10.8194C30.4318 10.2955 30.8785 9.85444 31.409 9.85444H32.8502C33.3808 9.85444 33.8266 10.2955 33.8266 10.8194V17.6091C33.8266 20.2934 34.8478 21.6329 36.9041 21.6329C38.8605 21.6329 39.5812 20.314 39.5812 17.7991V10.8194Z" fill="white"/>
<path fill-rule="evenodd" clip-rule="evenodd" d="M51.2656 23.5612C51.2656 24.0851 50.8198 24.5254 50.2892 24.5254H48.8451C48.3145 24.5254 47.8688 24.0851 47.8688 23.5612V10.8187C47.8688 10.2948 48.3145 9.8538 48.8451 9.8538H50.2892C50.8198 9.8538 51.2656 10.2948 51.2656 10.8187V23.5612Z" fill="white"/>
<path fill-rule="evenodd" clip-rule="evenodd" d="M63.0718 12.7463C61.8626 12.7463 60.8863 13.1451 60.0992 13.9187C59.3158 14.6959 58.9117 15.7851 58.9117 17.1903C58.9117 18.4877 59.3367 19.5566 60.1629 20.3777C60.9919 21.2146 62.0736 21.6342 63.4124 21.6342C64.1987 21.6342 64.983 21.4466 65.7244 21.0655L66.3394 20.9222C66.7224 20.9222 67.0201 21.089 67.2102 21.4231L67.7199 22.2202L67.868 22.744C67.868 23.1016 67.72 23.3936 67.4035 23.6256C66.2788 24.402 64.8346 24.7773 63.0927 24.7773C60.7807 24.7773 58.9116 24.0866 57.4675 22.682C56.0242 21.2975 55.3039 19.4761 55.3039 17.1903C55.3039 14.9878 55.9817 13.166 57.3411 11.74C58.7007 10.314 60.6086 9.60245 63.0718 9.60245C64.3647 9.60245 65.5769 9.87379 66.68 10.4183C67.0202 10.5674 67.1923 10.8408 67.1923 11.2367L67.0837 11.7009L66.6168 12.6627C66.4447 13.0403 66.1494 13.2309 65.7033 13.2309L65.1968 13.1237C64.5369 12.874 63.8373 12.7463 63.0718 12.7463Z" fill="white"/>
<path fill-rule="evenodd" clip-rule="evenodd" d="M75.9652 15.4082L78.7478 10.5032C78.982 10.0627 79.3411 9.85444 79.8508 9.85444H80.9115C81.5086 9.85444 81.9727 10.3361 81.9727 10.902L81.8251 11.4282L77.5147 18.5518V23.5611C77.5147 24.085 77.0709 24.526 76.5404 24.526H75.0972C74.5669 24.526 74.1199 24.085 74.1199 23.5611V18.5518L69.8544 11.4282L69.7039 10.902C69.7039 10.3361 70.1716 9.85444 70.7658 9.85444H72.04C72.5494 9.85444 72.9116 10.0627 73.1436 10.5032L75.9652 15.4082Z" fill="white"/>
<path fill-rule="evenodd" clip-rule="evenodd" d="M97.9481 21.6344C98.7951 21.6344 99.9228 21.2356 100.284 20.8994V19.3071H98.0957C97.5651 19.3071 97.1221 18.8661 97.1221 18.3422V17.1276C97.1221 16.6016 97.5651 16.1612 98.0957 16.1612H102.491C103.021 16.1612 103.468 16.6016 103.468 17.1276V22.0749C103.468 22.5573 103.278 22.9113 102.895 23.1852C101.556 24.1702 99.5822 24.7775 97.9032 24.7775C95.4011 24.7775 93.4476 24.0844 92.0484 22.7236C90.6446 21.3633 89.9451 19.5177 89.9451 17.1904C89.9451 15.0323 90.6262 13.2081 92.0036 11.7615C93.3841 10.3149 95.2082 9.6034 97.4814 9.6034C99.1147 9.6034 100.474 9.89529 101.533 10.4635C101.939 10.6923 102.129 10.9871 102.129 11.3648L102.003 11.8235L101.427 12.8299C101.216 13.1867 100.92 13.3744 100.535 13.3744L100.028 13.2495C99.3257 12.9133 98.6051 12.7465 97.8845 12.7465C95.3167 12.7465 93.5533 14.2764 93.5533 17.1904C93.5533 19.893 95.2927 21.6344 97.9481 21.6344Z" fill="white"/>
<path fill-rule="evenodd" clip-rule="evenodd" d="M113.156 14.1508L111.479 18.3002H114.813L113.156 14.1508ZM116.085 21.4467H110.207L109.251 23.8339C109.058 24.295 108.718 24.5249 108.233 24.5249H106.939C106.427 24.5249 106.026 24.105 106.026 23.6257L106.087 23.2681L111.437 10.5461C111.651 10.085 111.991 9.85539 112.477 9.85539H114.027C114.514 9.85539 114.855 10.085 115.069 10.5461L120.417 23.2681L120.478 23.6257C120.478 24.105 120.076 24.5249 119.567 24.5249H118.06C117.571 24.5249 117.231 24.295 117.041 23.8339L116.085 21.4467Z" fill="white"/>
<path fill-rule="evenodd" clip-rule="evenodd" d="M127.284 16.246H128.514C130.063 16.246 130.829 15.6801 130.829 14.549C130.829 13.4777 130.148 12.9562 128.767 12.9562C128.704 12.9562 128.218 12.977 127.284 12.9981V16.246ZM128.535 19.392H127.284V23.562C127.284 24.0859 126.838 24.5261 126.307 24.5261H124.863C124.333 24.5261 123.887 24.0859 123.887 23.562V10.8194C123.887 10.2955 124.333 9.85452 124.863 9.85452C126.793 9.83367 128.152 9.81021 128.939 9.81021C132.78 9.81021 134.437 11.593 134.437 14.5075C134.437 16.4988 133.609 17.924 131.932 18.7404L135.2 23.1009L135.39 23.6248C135.39 24.1065 134.989 24.5261 134.458 24.5261H132.885C132.378 24.5261 131.995 24.3178 131.721 23.9167L128.535 19.392Z" fill="white"/>
<path fill-rule="evenodd" clip-rule="evenodd" d="M142.557 21.3825C142.852 21.4034 143.256 21.424 143.787 21.424C146.759 21.424 148.583 19.8317 148.583 17.0663C148.583 14.4442 146.674 12.9346 143.808 12.9346C143.256 12.9346 142.831 12.958 142.557 12.9974V21.3825ZM141.43 9.8332C142.005 9.81235 142.493 9.81235 142.895 9.79176H143.85C146.653 9.79176 148.754 10.4824 150.133 11.8456C151.513 13.2059 152.191 14.9473 152.191 17.0663C152.191 19.2244 151.449 21.0249 149.984 22.43C148.498 23.8531 146.397 24.5676 143.681 24.5676C143.298 24.5676 142.111 24.5467 140.136 24.5254C139.606 24.5254 139.16 24.0645 139.16 23.5406V10.8393C139.16 10.3157 139.606 9.8538 140.136 9.8538C140.413 9.8538 140.857 9.85405 141.43 9.8332Z" fill="white"/>
<path fill-rule="evenodd" clip-rule="evenodd" d="M165.045 23.5612C165.045 24.0851 164.599 24.5254 164.068 24.5254H157C156.469 24.5254 156.023 24.0851 156.023 23.5612V10.8187C156.023 10.2948 156.469 9.8538 157 9.8538H163.857C164.385 9.8538 164.831 10.2948 164.831 10.8187V12.0333C164.831 12.5572 164.385 12.9974 163.857 12.9974H159.42V15.5775H163.221C163.749 15.5775 164.195 16.0156 164.195 16.5424V17.7541C164.195 18.2809 163.749 18.7211 163.221 18.7211H159.42V21.3825H164.068C164.599 21.3825 165.045 21.8228 165.045 22.3466V23.5612Z" fill="white"/>
<path fill-rule="evenodd" clip-rule="evenodd" d="M181.269 9.85444C181.8 9.85444 182.246 10.2947 182.246 10.8186V23.5619C182.246 24.0858 181.8 24.526 181.269 24.526H180.271C179.765 24.526 179.358 24.3384 179.063 23.9372L172.482 15.7244V23.5619C172.482 24.0858 172.036 24.526 171.506 24.526H170.276C169.745 24.526 169.298 24.0858 169.298 23.5619V10.8186C169.298 10.2947 169.745 9.85444 170.276 9.85444H171.273C171.783 9.85444 172.187 10.0421 172.482 10.4411L179.063 18.7004V10.8186C179.063 10.2947 179.509 9.85444 180.039 9.85444H181.269Z" fill="white"/>
<path fill-rule="evenodd" clip-rule="evenodd" d="M187.221 11.0152H187.414L187.728 10.7337L187.414 10.476H187.221V11.0152ZM187.4 11.3801H187.221V11.7164L186.965 11.9588L186.706 11.7164V10.3556L186.951 10.1108H187.49C188.002 10.1108 188.25 10.348 188.25 10.7257C188.25 10.9814 188.09 11.1875 187.896 11.2605L188.124 11.5576C188.245 11.7164 188.169 11.9588 187.931 11.9588L187.67 11.7896L187.4 11.3801ZM187.443 12.3578C187.805 12.3578 188.11 12.2322 188.364 11.9794C188.61 11.7268 188.739 11.4245 188.739 11.07C188.739 10.7132 188.61 10.4108 188.364 10.1575C188.116 9.90776 187.81 9.78007 187.443 9.78007C187.073 9.78007 186.767 9.90776 186.519 10.1575C186.273 10.4108 186.144 10.7132 186.144 11.07C186.144 11.4245 186.274 11.7268 186.524 11.9794C186.772 12.2322 187.079 12.3578 187.443 12.3578ZM186.091 12.4021C185.716 12.0341 185.529 11.5915 185.529 11.07C185.529 10.5461 185.716 10.0975 186.083 9.73055C186.453 9.35731 186.907 9.17483 187.443 9.17483C187.984 9.17483 188.438 9.35731 188.807 9.73055C189.171 10.0975 189.354 10.5461 189.354 11.07C189.354 11.5915 189.166 12.0393 188.8 12.4094C188.43 12.7796 187.976 12.9651 187.443 12.9651C186.915 12.9651 186.458 12.7795 186.091 12.4021Z" fill="white"/>
</svg>

<svg width="200" height="34" fill="none" xmlns="http://www.w3.org/2000/svg"><path fill-rule="evenodd" clip-rule="evenodd" d="M191.086 33.5H8.914C3.99 33.5 0 29.56 0 24.698V9.302C0 4.44 3.991.5 8.914.5h182.172C196.009.5 200 4.441 200 9.302v15.396c0 4.861-3.991 8.802-8.914 8.802Z" fill="#1DABDD"/><path fill-rule="evenodd" clip-rule="evenodd" d="M22.36 10.82a.98.98 0 0 1 .976-.966h1.444c.53 0 .976.442.976.965v10.124c0 2.494-1.401 3.833-3.927 3.833-.83 0-1.613-.166-2.315-.523-.36-.188-.552-.44-.552-.795l.127-.506.383-.858c.192-.398.467-.586.828-.586l.489.063.467.062h.106c.614 0 .997-.461.997-1.3v-9.514ZM39.581 10.82c0-.524.446-.966.976-.966H42c.53 0 .976.442.976.965v7.65c0 2.116-.572 3.69-1.718 4.736-1.17 1.048-2.61 1.572-4.353 1.572-1.974 0-3.542-.545-4.712-1.655-1.166-1.11-1.76-2.703-1.76-4.799v-7.504c0-.524.447-.965.977-.965h1.441c.53 0 .977.442.977.965v6.79c0 2.684 1.02 4.024 3.077 4.024 1.956 0 2.677-1.319 2.677-3.834v-6.98ZM51.266 23.561a.982.982 0 0 1-.977.964h-1.444a.982.982 0 0 1-.976-.964V10.82c0-.524.446-.965.976-.965h1.444c.53 0 .977.44.977.965V23.56ZM63.072 12.746c-1.21 0-2.186.4-2.973 1.173-.783.777-1.187 1.866-1.187 3.271 0 1.298.425 2.367 1.25 3.188.83.837 1.912 1.256 3.25 1.256.787 0 1.571-.187 2.312-.569l.615-.143c.383 0 .681.167.871.501l.51.797.148.524c0 .358-.148.65-.465.882-1.124.776-2.568 1.151-4.31 1.151-2.312 0-4.181-.69-5.626-2.095-1.443-1.384-2.163-3.206-2.163-5.492 0-2.202.678-4.024 2.037-5.45 1.36-1.426 3.268-2.138 5.73-2.138 1.294 0 2.506.272 3.609.816.34.15.512.423.512.819l-.108.464-.467.962c-.172.377-.468.568-.914.568l-.506-.107a5.921 5.921 0 0 0-2.125-.378ZM75.965 15.408l2.783-4.905c.234-.44.593-.649 1.103-.649h1.06c.598 0 1.062.482 1.062 1.048l-.148.526-4.31 7.124v5.01a.98.98 0 0 1-.975.964h-1.443a.983.983 0 0 1-.977-.965v-5.01l-4.266-7.123-.15-.526c0-.566.468-1.048 1.062-1.048h1.274c.51 0 .872.209 1.104.65l2.821 4.904ZM97.948 21.634c.847 0 1.975-.398 2.336-.735v-1.592h-2.188a.98.98 0 0 1-.974-.965v-1.214a.98.98 0 0 1 .974-.967h4.395c.53 0 .977.44.977.967v4.947c0 .482-.19.836-.573 1.11-1.339.985-3.313 1.593-4.992 1.593-2.502 0-4.455-.694-5.855-2.054-1.403-1.36-2.103-3.206-2.103-5.534 0-2.158.681-3.982 2.059-5.429 1.38-1.446 3.204-2.158 5.477-2.158 1.634 0 2.993.292 4.052.86.406.23.596.524.596.902l-.126.458-.576 1.007c-.211.357-.507.544-.892.544l-.507-.125a4.935 4.935 0 0 0-2.144-.503c-2.567 0-4.33 1.53-4.33 4.444 0 2.703 1.739 4.444 4.394 4.444ZM113.156 14.15l-1.677 4.15h3.334l-1.657-4.15Zm2.929 7.297h-5.878l-.956 2.387c-.193.461-.533.69-1.018.69h-1.294a.912.912 0 0 1-.913-.898l.061-.358 5.35-12.722c.214-.461.554-.69 1.04-.69h1.55c.487 0 .828.229 1.042.69l5.348 12.722.061.358c0 .479-.402.899-.911.899h-1.507c-.489 0-.829-.23-1.019-.691l-.956-2.387ZM127.284 16.246h1.23c1.549 0 2.315-.566 2.315-1.697 0-1.071-.681-1.593-2.062-1.593-.063 0-.549.021-1.483.042v3.248Zm1.251 3.146h-1.251v4.17a.982.982 0 0 1-.977.964h-1.444a.982.982 0 0 1-.976-.964V10.819c0-.524.446-.964.976-.964 1.93-.021 3.289-.045 4.076-.045 3.841 0 5.498 1.783 5.498 4.697 0 1.992-.828 3.417-2.505 4.233l3.268 4.36.19.525a.917.917 0 0 1-.932.901h-1.573c-.507 0-.89-.208-1.164-.61l-3.186-4.524ZM142.557 21.383c.295.02.699.041 1.23.041 2.972 0 4.796-1.592 4.796-4.358 0-2.622-1.909-4.131-4.775-4.131-.552 0-.977.023-1.251.062v8.386Zm-1.127-11.55c.575-.02 1.063-.02 1.465-.041h.955c2.803 0 4.904.69 6.283 2.054 1.38 1.36 2.058 3.101 2.058 5.22 0 2.158-.742 3.959-2.207 5.364-1.486 1.423-3.587 2.138-6.303 2.138-.383 0-1.57-.021-3.545-.043-.53 0-.976-.46-.976-.984V10.839c0-.523.446-.985.976-.985.277 0 .721 0 1.294-.02ZM165.045 23.561a.982.982 0 0 1-.977.964H157a.982.982 0 0 1-.977-.964V10.82c0-.524.446-.965.977-.965h6.857c.528 0 .974.44.974.965v1.214a.981.981 0 0 1-.974.964h-4.437v2.58h3.801a.98.98 0 0 1 .974.965v1.212a.982.982 0 0 1-.974.967h-3.801v2.662h4.648c.531 0 .977.44.977.964v1.214ZM181.269 9.854c.531 0 .977.44.977.965v12.743a.982.982 0 0 1-.977.964h-.998c-.506 0-.913-.188-1.208-.589l-6.581-8.213v7.838a.982.982 0 0 1-.976.964h-1.23a.983.983 0 0 1-.978-.964V10.819c0-.524.447-.965.978-.965h.997c.51 0 .914.188 1.209.587l6.581 8.26v-7.882c0-.524.446-.965.976-.965h1.23ZM187.221 11.015h.193l.314-.281-.314-.258h-.193v.54Zm.179.365h-.179v.336l-.256.243-.259-.243v-1.36l.245-.245h.539c.512 0 .76.237.76.615a.57.57 0 0 1-.354.534l.228.298c.121.158.045.4-.193.4l-.261-.168-.27-.41Zm.043.978c.362 0 .667-.126.921-.379.246-.252.375-.554.375-.909 0-.357-.129-.66-.375-.912a1.247 1.247 0 0 0-.921-.378c-.37 0-.676.128-.924.378a1.266 1.266 0 0 0-.375.912c0 .354.13.657.38.91.248.252.555.378.919.378Zm-1.352.044a1.796 1.796 0 0 1-.562-1.332c0-.524.187-.973.554-1.34.37-.373.824-.555 1.36-.555.541 0 .995.182 1.364.556.364.367.547.815.547 1.339 0 .521-.188.97-.554 1.34-.37.37-.824.555-1.357.555a1.82 1.82 0 0 1-1.352-.563Z" fill="#fff"/></svg>
